Komodo/status/scalable/appointment-soon.svg

<?xml version="1.0" encoding="UTF-8" standalone="no"?>
<!-- Created with Inkscape (http://www.inkscape.org/) -->

<svg
   xmlns:dc="http://purl.org/dc/elements/1.1/"
   xmlns:cc="http://creativecommons.org/ns#"
   xmlns:rdf="http://www.w3.org/1999/02/22-rdf-syntax-ns#"
   xmlns:svg="http://www.w3.org/2000/svg"
   xmlns="http://www.w3.org/2000/svg"
   xmlns:xlink="http://www.w3.org/1999/xlink"
   xmlns:inkscape="http://www.inkscape.org/namespaces/inkscape"
   version="1.0"
   width="96"
   height="96"
   id="svg2"
   style="display:inline">
  <defs
     id="defs4">
    <linearGradient
       id="linearGradient4081">
      <stop
         id="stop4083"
         style="stop-color:#aaaaaa;stop-opacity:1"
         offset="0" />
      <stop
         id="stop4085"
         style="stop-color:#f0f0f0;stop-opacity:1"
         offset="1" />
    </linearGradient>
    <linearGradient
       x1="8"
       y1="48"
       x2="88"
       y2="48"
       id="linearGradient3799"
       xlink:href="#linearGradient4081"
       gradientUnits="userSpaceOnUse"
       gradientTransform="matrix(0,-1,1,0,0,96)" />
  </defs>
  <metadata
     id="metadata7">
    <rdf:RDF>
      <cc:Work
         rdf:about="">
        <dc:format>image/svg+xml</dc:format>
        <dc:type
           rdf:resource="http://purl.org/dc/dcmitype/StillImage" />
        <dc:title />
      </cc:Work>
    </rdf:RDF>
  </metadata>
  <g
     transform="translate(0,74)"
     id="layer1"
     style="display:inline">
    <path
       d="M 88,48 A 40,40 0 1 1 48.000001,8 L 48,48 z"
       transform="matrix(0.8,0,0,0.8,9.6,-64.4)"
       id="path2980"
       style="opacity:0.3;fill:#ffffff;fill-opacity:1;stroke:none" />
    <path
       d="M 48,-70 C 23.184111,-70 3,-49.815889 3,-25 3,-0.1841111 23.184111,20 48,20 72.815889,20 93,-0.1841111 93,-25 93,-49.815889 72.815889,-70 48,-70 z m -5.25,16.53125 C 41.707608,-52.2456 41,-50.718669 41,-49 l 0,11 0,7 0,0.75 c -1.134959,1.420024 -2.03125,3.183423 -2.03125,5.28125 0,4.9432 4.094576,8.96875 9.03125,8.96875 2.07549,0 3.829101,-0.897036 5.25,-2 l 0.75,0 7,0 7,0 c 3.841346,0 7,-3.158654 7,-7 0,-3.841346 -3.158654,-7 -7,-7 l -7,0 -6,0 0,-6 0,-11 c 0,-1.718669 -0.707608,-3.2456 -1.75,-4.46875 C 66.773872,-50.998141 77,-39.254727 77,-25 77,-8.9420491 64.057951,4 48,4 31.942049,4 19,-8.9420491 19,-25 c 0,-0.533693 0.0078,-1.007077 0.03125,-1.46875 0.688076,-13.574169 10.659578,-24.619982 23.71875,-27 z"
       id="path3816"
       style="opacity:0.07999998;fill:#000000;fill-opacity:1;stroke:none" />
    <path
       d="M 48,-69 C 23.724718,-69 4,-49.275282 4,-25 4,-0.72471846 23.724718,19 48,19 72.275282,19 92,-0.72471846 92,-25 92,-49.275282 72.275282,-69 48,-69 z m 0,14 c 16.595359,0 30,13.404641 30,30 C 78,-8.4046413 64.595359,5 48,5 31.404641,5 18,-8.4046413 18,-25 c 0,-0.541728 0.0065,-1.043858 0.03125,-1.53125 C 18.835459,-42.396462 31.923145,-55 48,-55 z m 0,0 c -3.295239,0 -6,2.704761 -6,6 l 0,11 0,7 0,1.03125 c -1.162124,1.342482 -2.03125,3.025114 -2.03125,5 0,4.392466 3.635924,7.96875 8.03125,7.96875 1.963771,0 3.648521,-0.860499 5,-2 l 1,0 7,0 7,0 c 3.295239,0 6,-2.704761 6,-6 0,-3.295239 -2.704761,-6 -6,-6 l -7,0 -7,0 0,-7 0,-11 c 0,-3.295239 -2.704761,-6 -6,-6 z"
       id="path3812"
       style="opacity:0.1;fill:#000000;fill-opacity:1;stroke:none" />
    <path
       d="M 48,-68 C 24.264718,-68 5,-48.735282 5,-25 5,-1.2647181 24.264718,18 48,18 71.735282,18 91,-1.2647181 91,-25 91,-48.735282 71.735282,-68 48,-68 z m 0,12 c 17.133789,0 31,13.866211 31,31 C 79,-7.8662109 65.133789,6 48,6 30.866211,6 17,-7.8662109 17,-25 c 0,-0.547948 0.0051,-1.078368 0.03125,-1.59375 C 17.861865,-42.979885 31.401272,-56 48,-56 z m 0,2 c -2.751593,0 -5,2.248407 -5,5 l 0,11 0,7 0,1.3125 c -1.195371,1.241955 -2.03125,2.860717 -2.03125,4.71875 0,3.842707 3.175296,6.96875 7.03125,6.96875 1.862299,0 3.499062,-0.819443 4.75,-2 l 1.25,0 7,0 7,0 c 2.751593,0 5,-2.248407 5,-5 0,-2.751593 -2.248407,-5 -5,-5 l -7,0 -7,0 -1,0 0,-1 0,-7 0,-11 c 0,-2.751593 -2.248407,-5 -5,-5 z m 0,28 c 0.565246,0 1,0.434754 1,1 0,0.565246 -0.434754,1 -1,1 -0.565246,0 -1,-0.434754 -1,-1 0,-0.565246 0.434754,-1 1,-1 z"
       id="path3808"
       style="opacity:0.15;fill:#000000;fill-opacity:1;stroke:none" />
    <path
       d="M 48,-67 C 24.804041,-67 6,-48.195959 6,-25 6,-1.804041 24.804041,17 48,17 71.195959,17 90,-1.804041 90,-25 90,-48.195959 71.195959,-67 48,-67 z m 0,10 c 17.673112,0 32,14.326888 32,32 C 80,-7.326888 65.673112,7 48,7 30.326888,7 16,-7.326888 16,-25 c 0,-0.552285 0.0036,-1.110836 0.03125,-1.65625 C 16.88831,-43.564086 30.879173,-57 48,-57 z m 0,4 c -2.216,0 -4,1.784 -4,4 l 0,11 0,7 0,1.59375 c -1.24023,1.093314 -2.03125,2.666085 -2.03125,4.4375 0,3.295411 2.710954,5.96875 6.03125,5.96875 1.779776,0 3.371149,-0.77968 4.46875,-2 L 54,-21 l 7,0 7,0 c 2.216,0 4,-1.784 4,-4 0,-2.216 -1.784,-4 -4,-4 l -7,0 -7,0 -1.59375,0 C 52.276212,-29.140395 52.142932,-29.278805 52,-29.40625 L 52,-31 l 0,-7 0,-11 c 0,-2.216 -1.784,-4 -4,-4 z m 0,26 c 1.104569,0 2,0.895431 2,2 0,1.104569 -0.895431,2 -2,2 -1.104569,0 -2,-0.895431 -2,-2 0,-1.104569 0.895431,-2 2,-2 z"
       inkscape:connector-curvature="0"
       id="path3802"
       style="opacity:0.3;fill:#000000;fill-opacity:1;stroke:none" />
    <path
       d="M 48,6 C 24.804041,6 6,24.804041 6,48 6,71.195959 24.804041,90 48,90 71.195959,90 90,71.195959 90,48 90,24.804041 71.195959,6 48,6 z m 0,10 C 65.673112,16 80,30.326888 80,48 80,65.673112 65.673112,80 48,80 30.326888,80 16,65.673112 16,48 c 0,-0.552285 0.0036,-1.110836 0.03125,-1.65625 C 16.88831,29.435914 30.879173,16 48,16 z m 0,4 c -2.216,0 -4,1.784 -4,4 l 0,11 0,7 0,1.59375 c -1.24023,1.093314 -2.03125,2.666085 -2.03125,4.4375 C 41.96875,51.326661 44.679704,54 48,54 c 1.779776,0 3.371149,-0.77968 4.46875,-2 L 54,52 l 7,0 7,0 c 2.216,0 4,-1.784 4,-4 0,-2.216 -1.784,-4 -4,-4 l -7,0 -7,0 -1.59375,0 C 52.276212,43.859605 52.142932,43.721195 52,43.59375 L 52,42 52,35 52,24 c 0,-2.216 -1.784,-4 -4,-4 z m 0,26 c 1.104569,0 2,0.895431 2,2 0,1.104569 -0.895431,2 -2,2 -1.104569,0 -2,-0.895431 -2,-2 0,-1.104569 0.895431,-2 2,-2 z"
       inkscape:connector-curvature="0"
       transform="translate(0,-74)"
       id="path2976"
       style="fill:url(#linearGradient3799);fill-opacity:1;stroke:none" />
    <path
       d="M 48,6 C 24.804041,6 6,24.804041 6,48 6,48.336195 6.0233936,48.665694 6.03125,49 6.5654465,26.268685 25.140236,8 48,8 70.859764,8 89.434553,26.268685 89.96875,49 89.976606,48.665694 90,48.336195 90,48 90,24.804041 71.195959,6 48,6 z m 0,14 c -2.216,0 -4,1.784 -4,4 l 0,2 c 0,-2.216 1.784,-4 4,-4 2.216,0 4,1.784 4,4 l 0,-2 c 0,-2.216 -1.784,-4 -4,-4 z m -4,23.59375 c -1.24023,1.093314 -2.03125,2.666085 -2.03125,4.4375 0,0.354405 0.03366,0.693786 0.09375,1.03125 C 42.29375,47.691771 42.992313,46.482068 44,45.59375 L 44,44 44,43.59375 z m 8,0 L 52,44 52,45.59375 C 52.142932,45.721195 52.276212,45.859605 52.40625,46 L 54,46 l 7,0 7,0 c 1.868974,0 3.400465,1.273103 3.84375,3 C 71.926058,48.679355 72,48.347026 72,48 72,45.784 70.216,44 68,44 l -7,0 -7,0 -1.59375,0 C 52.276212,43.859605 52.142932,43.721195 52,43.59375 z M 16.03125,49 C 16.02412,49.33383 16,49.666467 16,50 16,67.673112 30.326888,82 48,82 65.673112,82 80,67.673112 80,50 80,49.666467 79.978882,49.331075 79.96875,49 79.442029,66.211824 65.339579,80 48,80 30.660421,80 16.557971,66.211824 16.03125,49 z m 30.25,0 C 46.110492,49.294544 46,49.635035 46,50 c 0,1.104569 0.895431,2 2,2 1.104569,0 2,-0.895431 2,-2 0,-0.364965 -0.110492,-0.705456 -0.28125,-1 -0.346043,0.596896 -0.979146,1 -1.71875,1 -0.739604,0 -1.372707,-0.403104 -1.71875,-1 z"
       inkscape:connector-curvature="0"
       transform="translate(0,-74)"
       id="path3818"
       style="opacity:0.6;fill:#ffffff;fill-opacity:1;stroke:none" />
  </g>
</svg>

<?xml version="1.0" encoding="UTF-8" standalone="no"?>
<!-- Created with Inkscape (http://www.inkscape.org/) -->
<svg id="svg2" xmlns:rdf="http://www.w3.org/1999/02/22-rdf-syntax-ns#" xmlns="http://www.w3.org/2000/svg" height="96" width="96" version="1.0" xmlns:cc="http://creativecommons.org/ns#" xmlns:xlink="http://www.w3.org/1999/xlink" xmlns:dc="http://purl.org/dc/elements/1.1/">
 <defs id="defs4">
  <linearGradient id="linearGradient3799" y2="48" gradientUnits="userSpaceOnUse" x2="88" gradientTransform="matrix(0,-1,1,0,0,96)" y1="48" x1="8">
   <stop id="stop4083" style="stop-color:#aaa" offset="0"/>
   <stop id="stop4085" style="stop-color:#f0f0f0" offset="1"/>
  </linearGradient>
 </defs>
 <metadata id="metadata7">
  <rdf:RDF>
   <cc:Work rdf:about="">
    <dc:format>image/svg+xml</dc:format>
    <dc:type rdf:resource="http://purl.org/dc/dcmitype/StillImage"/>
    <dc:title/>
   </cc:Work>
  </rdf:RDF>
 </metadata>
 <g id="layer1" transform="translate(0,74)">
  <path id="path2980" style="opacity:.3;fill:#fff" d="m88 48a40 40 0 1 1 -40 -40v40z" transform="matrix(.8 0 0 .8 9.6 -64.4)"/>
  <path id="path3816" style="opacity:0.08" d="m48-70c-24.816 0-45 20.184-45 45s20.184 45 45 45 45-20.184 45-45-20.184-45-45-45zm-5.25 16.531c-1.042 1.223-1.75 2.75-1.75 4.469v11 7 0.75c-1.135 1.42-2.0312 3.1834-2.0312 5.2812 0 4.9432 4.0946 8.9688 9.0312 8.9688 2.0755 0 3.8291-0.89704 5.25-2h0.75 7 7c3.8413 0 7-3.1587 7-7s-3.1587-7-7-7h-7-6v-6-11c0-1.7187-0.70761-3.2456-1.75-4.4688 13.524 2.471 23.75 14.214 23.75 28.469 0 16.058-12.942 29-29 29s-29-12.942-29-29c0-0.53369 0.0078-1.0071 0.03125-1.4688 0.68808-13.574 10.66-24.62 23.719-27z"/>
  <path id="path3812" style="opacity:.1" d="m48-69c-24.275 0-44 19.725-44 44s19.725 44 44 44 44-19.725 44-44-19.725-44-44-44zm0 14c16.595 0 30 13.405 30 30s-13.405 30-30 30-30-13.405-30-30c0-0.54173 0.0065-1.0439 0.03125-1.5312 0.804-15.865 13.892-28.469 29.969-28.469zc-3.2952 0-6 2.7048-6 6v11 7 1.0312c-1.1621 1.3425-2.0312 3.0251-2.0312 5 0 4.3925 3.6359 7.9688 8.0312 7.9688 1.9638 0 3.6485-0.8605 5-2h1 7 7c3.2952 0 6-2.7048 6-6s-2.7048-6-6-6h-7-7v-7-11c0-3.2952-2.7048-6-6-6z"/>
  <path id="path3808" style="opacity:.15" d="m48-68c-23.735 0-43 19.265-43 43s19.265 43 43 43 43-19.265 43-43-19.265-43-43-43zm0 12c17.134 0 31 13.866 31 31s-13.866 31-31 31-31-13.866-31-31c0-0.54795 0.0051-1.0784 0.03125-1.5938 0.831-16.386 14.37-29.406 30.969-29.406zm0 2c-2.7516 0-5 2.2484-5 5v11 7 1.3125c-1.1954 1.242-2.0312 2.8607-2.0312 4.7188 0 3.8427 3.1753 6.9688 7.0312 6.9688 1.8623 0 3.4991-0.81944 4.75-2h1.25 7 7c2.7516 0 5-2.2484 5-5s-2.2484-5-5-5h-7-7-1v-1-7-11c0-2.7516-2.2484-5-5-5zm0 28c0.56525 0 1 0.43475 1 1s-0.43475 1-1 1-1-0.43475-1-1 0.43475-1 1-1z"/>
  <path id="path3802" style="opacity:.3" d="m48-67c-23.196 0-42 18.804-42 42s18.804 42 42 42 42-18.804 42-42-18.804-42-42-42zm0 10c17.673 0 32 14.327 32 32s-14.327 32-32 32-32-14.327-32-32c0-0.55228 0.0036-1.1108 0.03125-1.6562 0.857-16.908 14.848-30.344 31.969-30.344zm0 4c-2.216 0-4 1.784-4 4v11 7 1.5938c-1.2402 1.0933-2.0312 2.6661-2.0312 4.4375 0 3.2954 2.711 5.9688 6.0312 5.9688 1.7798 0 3.3711-0.77968 4.4688-2h1.531 7 7c2.216 0 4-1.784 4-4s-1.784-4-4-4h-7-7-1.5938c-0.13-0.14-0.263-0.279-0.406-0.406v-1.594-7-11c0-2.216-1.784-4-4-4zm0 26c1.1046 0 2 0.89543 2 2s-0.89543 2-2 2-2-0.89543-2-2 0.89543-2 2-2z"/>
  <path id="path2976" style="fill:url(#linearGradient3799)" transform="translate(0,-74)" d="m48 6c-23.196 0-42 18.804-42 42s18.804 42 42 42 42-18.804 42-42-18.804-42-42-42zm0 10c17.673 0 32 14.327 32 32s-14.327 32-32 32-32-14.327-32-32c0-0.55228 0.0036-1.1108 0.03125-1.6562 0.857-16.908 14.848-30.344 31.969-30.344zm0 4c-2.216 0-4 1.784-4 4v11 7 1.5938c-1.2402 1.0933-2.0312 2.6661-2.0312 4.4375 0 3.295 2.711 5.968 6.031 5.968 1.7798 0 3.3711-0.77968 4.4688-2h1.531 7 7c2.216 0 4-1.784 4-4s-1.784-4-4-4h-7-7-1.5938c-0.13-0.14-0.263-0.279-0.406-0.406v-1.594-7-11c0-2.216-1.784-4-4-4zm0 26c1.1046 0 2 0.89543 2 2s-0.89543 2-2 2-2-0.89543-2-2 0.89543-2 2-2z"/>
  <path id="path3818" style="opacity:.6;fill:#fff" transform="translate(0,-74)" d="m48 6c-23.196 0-42 18.804-42 42 0 0.336 0.0234 0.666 0.0312 1 0.5342-22.731 19.109-41 41.969-41s41.435 18.269 41.969 41c0.008-0.334 0.031-0.664 0.031-1 0-23.196-18.804-42-42-42zm0 14c-2.216 0-4 1.784-4 4v2c0-2.216 1.784-4 4-4s4 1.784 4 4v-2c0-2.216-1.784-4-4-4zm-4 23.594c-1.2402 1.0933-2.0312 2.6661-2.0312 4.4375 0 0.3544 0.03366 0.69379 0.09375 1.0312 0.231-1.371 0.929-2.581 1.937-3.469v-1.594-0.406zm8 0v0.406 1.594c0.143 0.127 0.276 0.266 0.406 0.406h1.594 7 7c1.869 0 3.4005 1.2731 3.8438 3 0.082-0.321 0.156-0.653 0.156-1 0-2.216-1.784-4-4-4h-7-7-1.5938c-0.13-0.14-0.263-0.279-0.406-0.406zm-35.969 5.406c-0.007 0.334-0.031 0.666-0.031 1 0 17.673 14.327 32 32 32s32-14.327 32-32c0-0.334-0.021-0.669-0.031-1-0.527 17.212-14.629 31-31.969 31s-31.442-13.788-31.969-31zm30.25 0c-0.171 0.295-0.281 0.635-0.281 1 0 1.1046 0.89543 2 2 2s2-0.89543 2-2c0-0.36496-0.11049-0.70546-0.28125-1-0.34604 0.5969-0.97915 1-1.7188 1-0.7396 0-1.3727-0.4031-1.7188-1z"/>
 </g>
</svg>
